X:348
T: HAHL MI DEN SAHLHUND UT DEN STRANNE
N: E1504
O: Europa, Mitteleuropa, Deutschland, Insel Ruegen
R: Staende -, Seemanns - Lied, Fischer
M: 3/4
L: 1/8
K: G
 | G2D2EF | G2D2
EF | G2D2G2 | ABG2
B2 | dcB2B2 | cBA2A2 |
BAG2G2 | AGF2F2 |
G2D2EF | G2D2
EF | G2D2G2 | ABG2z2

@@@ Tune index: 5032
